X:1
T:There’s No Disappointment in Heaven
T:There’s No Disappointment in Heaven
T:Frederick Lehman & Claudia L. Mays
T:Frederick Martin Lehman, 1914
T:Public Domain Courtesy of the Cyber Hymnal™
T:Public Domain Courtesy of the Cyber Hymnal™
C:Frederick Lehman & Claudia L. Mays
Z:Public Domain
Z:Courtesy of the Cyber Hymnal™
%%score ( 1 2 ) 3
L:1/8
Q:1/4=100
M:6/8
K:Eb
V:1 treble 
V:2 treble 
V:3 bass 
V:1
 E | [EG]>[EG][EG] [DG][DF][DG] | [DF]/ [B,E]3- [B,E]3/2[EG] | [EB]>[EB][EB] [DB][DF][FA] | %4
w: 1.~There’s|no dis- ap- point- ment in|Heav- en, * No|wear- i- ness, sor- row or|
w: 2.~We’ll|nev- er pay rent for our|man- sion, * The|tax- es will nev- er come|
w: 3.~There’ll|nev- er be crepe on the|door- knob, * No|fun- er- al train in the|
 [EG]4- [EG]E | [EG]>[EG][EG] [DG][DF][DG] | [DF]/ [B,E]3- [B,E]3/2[GB] | [GB]>[FA][EG] [DF]E[DF] | %8
w: pain; * No|hearts that are bleed- ing and|brok- en, * No|song with a min- or re-|
w: due, * Our|gar- ments will nev- er grow|thread- bare, * But|al- ways be fade- less and|
w: sky; * No|graves on the hill- sides of|glo- ry, * For|there we shall nev- er- more|
 E4- _E[GB] | [Ge]>[Ge][Ge] [Ae][Ad][Ac] | [GB]/ [EG]3- [EG]3/2[GB] | [GB]>[FA][EG] [DF][CE][DF] | %12
w: frain. * The|clouds of our earth- ly ho-|riz- on * Will|ne- ver ap- pear in the|
w: new, * We’ll|nev- er be hun- gry or|thirst- y, * Nor|lan- guish in pov- er- ty|
w: die. * The|old will be young there for-|ev- er, * Trans-|formed in a mo- ment of|
 [EG]4- [EG][EB] | [Ee]>[Ee][Ee] [Ae][Ad][Ac] | [GB]/ [EG]3- [EG]3/2[GB] | %15
w: sky, * For|all will be sun- shine and|glad- ness, * With|
w: there, * For|all the rich boun- ties of|Heav- en * His|
w: time; * Im-|mor- tal we’ll stand in His|like- ness, * The|
 [GB]>[FA][EG] [DF][CE][DF] | E3 ||"^Refrain" [EB]3 | [B,G]>[B,G][B,G] [CG][DG][CG] | %19
w: ne- ver a sob or a|sigh.|||
w: sanc- ti- fied child- ren will|share.|I’m|bound for that beau- ti- ful|
w: stars and the sun to out-|shine.|||
 [B,G]/ [B,G]3- [B,G]3/2[B,G] | [EG]>[EG][DG] [EG][B,G][CG] | [DA]4- [DA][DA] | %22
w: |||
w: ci- ty, * My|Lord has pre- pared for His|own; * Where|
w: |||
 [FA]>[EA][DA] [CA][B,A][CA] | [DA]/ [DA]3- [DA]3/2[B,A] | [FA]>[EA][DA] [CA][DA][CA] | %25
w: |||
w: all the re- deemed of all|ag- es * Sing|“Glo- ry!” a- round the white|
w: |||
 [B,G]3 [EB]3 | [B,G]>[B,G][B,G] [CG][DG][CG] | [B,G]/ [B,G]3- [B,G]>[B,G][B,G]/ | %28
w: |||
w: throne; Some-|times I grow home- sick for|Heav- en, * And the|
w: |||
 [EG]>[EG][FG] [EG][DA][EB] | [Ec]4- [Ec][Ac]/[Ac]/ | [ce][Bd][Ac] [GB][EG][DF] | %31
w: |||
w: glor- ies I there shall be-|hold; * What a|joy that will be when my|
w: |||
 E[EG][GB] [Ac]2 [Ec]/[Ec]/ | [EB]E[FA] [EG]<[DG][DF] | E4- E |] %34
w: |||
w: Sav- ior I see, In that|beau- ti- ful ci- ty of|gold. *|
w: |||
V:2
 E | x6 | x6 | x6 | x6 | x6 | x6 | x6 | E4 _E x | x6 | x6 | x6 | x6 | x6 | x6 | x6 | E3 || x3 | %18
 x6 | x6 | x6 | x6 | x6 | x6 | x6 | x6 | x6 | x6 | x6 | x6 | x6 | E x5 | x E x4 | E4- E |] %34
V:3
 [E,G,] | [E,B,]>[E,B,][E,B,] [B,,B,][B,,B,][B,,B,] | [E,A,]/ [E,G,]3- [E,G,]3/2[E,B,] | %3
 [E,G,]>[E,G,][E,_G,] [B,,F,][B,,B,][B,,B,] | [E,B,]4- [E,B,][E,G,] | %5
 [E,B,]>[E,B,][E,B,] [B,,B,][B,,A,][B,,B,] | [E,A,]/ [E,G,]3- [E,G,]3/2[E,B,] | %7
 [E,E]>[E,B,][E,B,] [B,,A,][B,,G,][B,,A,] | [E,G,]4- [E,G,][E,B,] | %9
 [E,B,]>[E,B,][E,B,] [A,C][A,D][A,E] | [E,E]/ [E,B,]3- [E,B,]3/2[E,B,] | %11
 [E,B,]>[E,B,][E,B,] [B,,B,][B,,B,][B,,B,] | [E,B,]4- [E,B,][G,B,] | %13
 [A,C]>[A,C][A,C] [A,C][A,D][A,E] | [E,E]/ [E,B,]3- [E,B,]3/2[E,B,] | %15
 [E,E]>[E,B,][E,B,] [B,,A,][B,,A,][B,,A,] | [E,G,]3 || [E,G,]3 | %18
 [E,G,]>[E,G,][E,G,] [E,A,][E,B,][E,A,] | [E,G,]/ [E,G,]3- [E,G,]3/2[E,G,] | %20
 [E,B,]>[E,B,][E,B,] [E,B,][E,G,][E,G,] | [F,B,]4- [F,B,][F,B,] | %22
 [B,,B,]>[B,,B,][B,,B,] [B,,F,][B,,F,][B,,F,] | [B,,B,]/ [B,,B,]3- [B,,B,]3/2[B,,F,] | %24
 [B,,B,]>[B,,B,][B,,B,] [B,,F,][B,,F,][B,,F,] | [E,G,]3 [E,G,]3 | %26
 [E,G,]>[E,G,][E,G,] [E,A,][E,B,][E,A,] | [E,G,]/ [E,G,]3- [E,G,]>[E,G,][E,G,]/ | %28
 [E,B,]>[E,B,][E,B,] [E,B,][F,B,][G,B,] | A,4- A,[A,E]/[A,E]/ | [A,E][A,E][A,E] [E,E][E,B,][E,A,] | %31
 [E,G,][E,B,][E,E] [A,E]2 [A,,A,]/[A,,A,]/ | [B,,G,][C,G,][A,,C] [B,,B,]<[B,,B,][B,,A,] | %33
 [E,,E,G,]4- [E,,E,G,] |] %34

